images/skills/4-skills-internet-db-md.svg

<?xml version="1.0" encoding="UTF-8" standalone="no"?>
<svg width="210px" height="163px" viewBox="0 0 210 163" version="1.1" xmlns="http://www.w3.org/2000/svg" xmlns:xlink="http://www.w3.org/1999/xlink" xmlns:sketch="http://www.bohemiancoding.com/sketch/ns">
    <!-- Generator: Sketch 3.2.2 (9983) - http://www.bohemiancoding.com/sketch -->
    <title>internet-database</title>
    <desc>Created with Sketch.</desc>
    <defs></defs>
    <g id="Medium" stroke="none" stroke-width="1" fill="none" fill-rule="evenodd" sketch:type="MSPage">
        <g id="Group" sketch:type="MSLayerGroup" fill="#FFFFFF">
            <g id="internet-database" sketch:type="MSShapeGroup">
                <path d="M105.25,103.375102 C122.6595,103.375102 142,97.6129262 142,89.1615015 L142,78.7891846 C135.5,84.9355385 121.703,89.1615015 105.25,89.1615015 C88.797,89.1615015 75,84.9355385 68.5,78.7891846 L68.5,89.1615015 C68.5,97.6129262 87.8405,103.375102 105.25,103.375102" id="Fill-1"></path>
                <path d="M105.2605,68.6089569 C122.67,68.6089569 141.993,62.6546923 141.993,54.2032677 C141.993,45.7518431 122.67,39.9891662 105.2605,39.9891662 C87.851,39.9891662 68.528,45.7518431 68.528,54.2032677 C68.528,62.6546923 87.851,68.6089569 105.2605,68.6089569" id="Fill-2"></path>
                <path d="M105.25,84.9355385 C122.6595,84.9355385 142,79.1733631 142,70.7219385 L142,62.4626031 C135.5,68.6089569 121.703,72.6428308 105.25,72.6428308 C88.797,72.6428308 75,68.6089569 68.5,62.4626031 L68.5,70.7219385 C68.5,79.1733631 87.8405,84.9355385 105.25,84.9355385" id="Fill-3"></path>
                <path d="M105.25,121.814665 C122.6595,121.814665 142,116.052489 142,107.601065 L142,97.2287477 C135.5,103.375102 121.703,107.601065 105.25,107.601065 C88.797,107.601065 75,103.375102 68.5,97.2287477 L68.5,107.601065 C68.5,116.052489 87.8405,121.814665 105.25,121.814665" id="Fill-4"></path>
                <path d="M107.5,0 L107.5,5.55804923 L169.747,41.4887662 C170.522,41.93664 171,42.7651815 171,43.6624338 L171,116.970806 C171,117.868058 170.5275,118.6966 169.7525,119.144474 L106.255,155.798911 C105.483,156.244277 104.534,156.244277 103.762,155.798911 L40.2575,119.144474 C39.4825,118.6966 39,117.868058 39,116.970806 L39,43.6624338 C39,42.7651815 39.4835,41.9361385 40.259,41.4887662 L95.391,9.68069538 C96.588,8.99007692 98.117,9.40334462 98.8055,10.6040277 C99.494,11.8047108 99.0775,13.3374123 97.8805,14.0280308 L44,45.1128831 L44,115.520858 L105,150.731868 L166,115.520858 L166,45.1128831 L103.753,9.18166462 C102.978,8.73379077 102.5,7.90524923 102.5,7.00799692 L102.5,0 L0,0 L0,163 L210,163 L210,0 L107.5,0 L107.5,0 Z M105.25,35.7637046 C128.208,35.7637046 146,44.02304 146,54.2032677 L146,107.601065 C146,117.97288 128.208,126.040628 105.25,126.040628 C82.2925,126.040628 64.5,117.97288 64.5,107.601065 L64.5,54.2032677 C64.5,44.02304 82.2925,35.7637046 105.25,35.7637046 L105.25,35.7637046 Z" id="Fill-5"></path>
            </g>
        </g>
    </g>
</svg>

<svg width="210" height="163" viewBox="0 0 210 163" xmlns="http://www.w3.org/2000/svg"><title>internet-database</title><desc>Created with Sketch.</desc><g fill="#fff"><path d="M105.25 103.375c17.41 0 36.75-5.762 36.75-14.213V78.79c-6.5 6.146-20.297 10.372-36.75 10.372S75 84.936 68.5 78.79V89.16c0 8.45 19.34 14.213 36.75 14.213"/><path d="M105.26 68.61c17.41 0 36.733-5.955 36.733-14.407 0-8.45-19.323-14.214-36.733-14.214-17.41 0-36.732 5.762-36.732 14.213 0 8.452 19.323 14.406 36.732 14.406"/><path d="M105.25 84.936c17.41 0 36.75-5.763 36.75-14.214v-8.26c-6.5 6.147-20.297 10.18-36.75 10.18S75 68.61 68.5 62.463v8.26c0 8.45 19.34 14.214 36.75 14.214"/><path d="M105.25 121.815c17.41 0 36.75-5.763 36.75-14.214V97.23c-6.5 6.145-20.297 10.37-36.75 10.37S75 103.376 68.5 97.23v10.37c0 8.452 19.34 14.215 36.75 14.215"/><path d="M107.5 0v5.558l62.247 35.93c.775.45 1.253 1.277 1.253 2.174v73.31c0 .896-.472 1.725-1.248 2.172L106.255 155.8c-.772.444-1.72.444-2.493 0l-63.505-36.656c-.774-.447-1.257-1.276-1.257-2.173V43.663c0-.897.483-1.726 1.26-2.173L95.39 9.68c1.198-.69 2.727-.277 3.415.924.69 1.2.272 2.733-.925 3.424L44 45.113v70.408l61 35.212 61-35.21V45.11l-62.247-35.93c-.775-.448-1.253-1.277-1.253-2.174V0H0v163h210V0H107.5zm-2.25 35.764c22.958 0 40.75 8.26 40.75 18.44V107.6c0 10.373-17.792 18.44-40.75 18.44-22.957 0-40.75-8.067-40.75-18.44V54.204c0-10.18 17.793-18.44 40.75-18.44z"/></g></svg>
